!!!OTL: 537. Der Zigeunerbube im Norden.
!!!COM: Volksmelodie
!!!ODT: 1889
!!!ARE: Europa, Mitteleuropa, Deutschland; France, Elsass, Bischweiler
!!!SCT: B0537
!!!TXL: @@DE
!!!YEM: Copyright 1995, estate of Helmut Schaffrath.
**kern	**text
*ICvox	*
*Ivox	*
*clefG2	*
*M3/4	*
*k[f#c#]	*
*D:	*
!LO:TX:a:t=Mäßig bewegt. (Polonaisen-Tempo.)	!
{8f#	Fern
8g	im
=1	=1
4.f#	Süd
8e	das
8d	ſchö-
8e	-ne
=2	=2
4d	Spa-
4c#}	-nien,
{8b	Spa-
8b	-nien
=3	=3
4.a	iſt
8f#	mein
8d	Hei-
8e	-math-
=4	=4
2f#}	-land,
{8f#	wo
8g	die
=5	=5
4.f#	ſchat-
8e	-ti-
8d	-gen
8e	Ka-
=6	=6
4d	-ſta-
4c#}	-nien
{8b	rau-
8b	-ſchen
=7	=7
4.a	an
8f#	des
8d	E-
8e	-bro
=8	=8
2f#}	Strand
{8g	wo
8f#	die
=9	=9
4f#	Man-
4e	-dein
8f#	röth-
8e	-lich
=10	=10
4e	blü-
4d}	-hen,
{8f#	wo
8a	die
=11	=11
4.a	gold-
8a	-ne
16bL	Trau-
16aJ	.
16f#L	-be
16dJ	.
=12	=12
2e}	winkt,
{8f#	und
8f#	die
=13	=13
4.f#	Ro-
8e	-ſen
8d	ſchö-
8e	-ner
=14	=14
4d	glü-
4c#}	-hen,
{8e	und
8f#	das
=15	=15
4.g	Mond-
8g	-licht
8f#	gold-
8e	-ner
=16	=16
2a}	blinkt,
{8a	wo
8a	die
=17	=17
4.b	Ro-
8b	-ſen
8ccn	ſchö-
8b	-ner
=18	=18
4a	glü-
4g}	-hen
{8f#	und
8e	das
=19	=19
8d	Mond-
8A	-licht
4.f#	gol-
8e	-dner
=20	=20
4d	blinkt.
4r}	.
==	==
!!!AGN: Wander -, Heimat - Lied, Heimweh
!!!GTL: Wanderlieder
!!!ONB: ESAC (Essen Associative Code) Database: BOEHME
!!!AMT: simple triple
!!!AIN: vox
!!!EED: Helmut Schaffrath
!!!EEV: 1.0
!!Volksmel. aus dem Elſaß (Biſchweiler). 1889.
!!@@COMMENT:"Gedicht von E. Geibel 1831, in Lübeck entſtanden. Ʒuerſt in Büchner's deutſchem Taſchenb.
!!für 1837 S. 394. (R. Hein. ) Den Tert fand ich vielfach in Liederheften von Elſäſſer Bauern und
!!Mädchen um 1850-80 geſchrieben. Reißiger's beliebte Mel. gebe ich hier ſo, wie ſie im Volks-
!!mund ſich findet. Sie iſt weſentlich vereinfacht: ſtatt des Mollſatʒes für 3. und 4. Ʒeile ſetʒte das
!!Volk Wiederholung und alle chromat. Noten entfernte es."
!!@@END:
!!!Text: E. Geibel
!!!URL-scan: https://archive.org/details/BoehmeVtLieder1895/page/n427/mode/2up
!!!ENC: Anna Maria Matuszewska
!!!EEV: 2024/11/07
*-	*-
